dist/assets/img/svg/ad-02.svg

<svg width="33" height="32" viewBox="0 0 33 32" fill="none" xmlns="http://www.w3.org/2000/svg">
<g id="vuesax/outline/ruler&#38;pen">
<g id="ruler&#38;pen">
<path id="Vector" d="M24.8265 30.3332H19.4932C16.2665 30.3332 14.4932 28.5598 14.4932 25.3332V6.6665C14.4932 3.43984 16.2665 1.6665 19.4932 1.6665H24.8265C28.0532 1.6665 29.8265 3.43984 29.8265 6.6665V25.3332C29.8265 28.5598 28.0398 30.3332 24.8265 30.3332ZM19.4932 3.6665C17.3865 3.6665 16.4932 4.55984 16.4932 6.6665V25.3332C16.4932 27.4398 17.3865 28.3332 19.4932 28.3332H24.8265C26.9332 28.3332 27.8265 27.4398 27.8265 25.3332V6.6665C27.8265 4.55984 26.9332 3.6665 24.8265 3.6665H19.4932Z" fill="#5A5A5A"/>
<path id="Vector_2" d="M22.1598 9H15.4932C14.9465 9 14.4932 8.54667 14.4932 8C14.4932 7.45333 14.9465 7 15.4932 7H22.1598C22.7065 7 23.1598 7.45333 23.1598 8C23.1598 8.54667 22.7065 9 22.1598 9Z" fill="#5A5A5A"/>
<path id="Vector_3" d="M20.8265 25H15.4932C14.9465 25 14.4932 24.5467 14.4932 24C14.4932 23.4533 14.9465 23 15.4932 23H20.8265C21.3732 23 21.8265 23.4533 21.8265 24C21.8265 24.5467 21.3732 25 20.8265 25Z" fill="#5A5A5A"/>
<path id="Vector_4" d="M22.1601 19.6668C22.1468 19.6668 22.1468 19.6668 22.1601 19.6668L15.4801 19.6001C14.9335 19.6001 14.4801 19.1468 14.4935 18.5868C14.4935 18.0401 14.9468 17.6001 15.4935 17.6001C15.4935 17.6001 15.4934 17.6001 15.5068 17.6001L22.1734 17.6668C22.7201 17.6668 23.1734 18.1201 23.1601 18.6801C23.1468 19.2268 22.7068 19.6668 22.1601 19.6668Z" fill="#5A5A5A"/>
<path id="Vector_5" d="M19.4932 14.3335H15.4932C14.9465 14.3335 14.4932 13.8802 14.4932 13.3335C14.4932 12.7868 14.9465 12.3335 15.4932 12.3335H19.4932C20.0398 12.3335 20.4932 12.7868 20.4932 13.3335C20.4932 13.8802 20.0398 14.3335 19.4932 14.3335Z" fill="#5A5A5A"/>
<path id="Vector_6" d="M7.51991 30.2932C6.30658 30.2932 5.15991 29.5465 4.37324 28.2398L3.27991 26.4265C2.87991 25.7598 2.57324 24.6665 2.57324 23.8932V6.59984C2.57324 3.87984 4.78658 1.6665 7.50658 1.6665C10.2266 1.6665 12.4399 3.87984 12.4399 6.59984V23.8798C12.4399 24.6532 12.1332 25.7465 11.7332 26.4132L10.6399 28.2265C9.87991 29.5465 8.73324 30.2932 7.51991 30.2932ZM7.51991 3.6665C5.90658 3.6665 4.58658 4.9865 4.58658 6.59984V23.8798C4.58658 24.2932 4.78658 25.0265 4.99991 25.3865L6.09324 27.1998C6.50658 27.8932 7.02658 28.2798 7.51991 28.2798C8.01324 28.2798 8.53324 27.8798 8.94658 27.1998L10.0399 25.3865C10.2532 25.0265 10.4532 24.2932 10.4532 23.8798V6.59984C10.4532 4.9865 9.13324 3.6665 7.51991 3.6665Z" fill="#5A5A5A"/>
<path id="Vector_7" d="M11.4532 10.3335H3.57324C3.02658 10.3335 2.57324 9.88016 2.57324 9.3335C2.57324 8.78683 3.02658 8.3335 3.57324 8.3335H11.4532C11.9999 8.3335 12.4532 8.78683 12.4532 9.3335C12.4532 9.88016 11.9999 10.3335 11.4532 10.3335Z" fill="#5A5A5A"/>
</g>
</g>
</svg>

<svg width="33" height="32" fill="none" xmlns="http://www.w3.org/2000/svg"><g fill="#5A5A5A"><path d="M24.826 30.333h-5.333c-3.226 0-5-1.773-5-5V6.667c0-3.227 1.774-5 5-5h5.334c3.226 0 5 1.773 5 5v18.666c0 3.227-1.787 5-5 5zM19.493 3.667c-2.106 0-3 .893-3 3v18.666c0 2.107.894 3 3 3h5.334c2.106 0 3-.893 3-3V6.667c0-2.107-.894-3-3-3h-5.334z"/><path d="M22.16 9h-6.667c-.546 0-1-.453-1-1 0-.547.454-1 1-1h6.667c.546 0 1 .453 1 1 0 .547-.454 1-1 1zm-1.334 16h-5.333c-.546 0-1-.453-1-1 0-.547.454-1 1-1h5.333c.547 0 1 .453 1 1 0 .547-.453 1-1 1zm1.334-5.333c-.013 0-.013 0 0 0l-6.68-.067a.99.99 0 01-.987-1.013.996.996 0 011-.987h.014l6.666.067c.547 0 1 .453.987 1.013a1.005 1.005 0 01-1 .987zm-2.667-5.333h-4c-.546 0-1-.454-1-1 0-.547.454-1 1-1h4c.547 0 1 .453 1 1 0 .546-.453 1-1 1zM7.52 30.293c-1.213 0-2.36-.746-3.147-2.053L3.28 26.427c-.4-.667-.707-1.76-.707-2.534V6.6a4.94 4.94 0 014.934-4.933A4.94 4.94 0 0112.44 6.6v17.28c0 .773-.307 1.867-.707 2.533l-1.093 1.814c-.76 1.32-1.907 2.066-3.12 2.066zm0-26.627A2.942 2.942 0 004.587 6.6v17.28c0 .413.2 1.146.413 1.507L6.093 27.2c.414.693.934 1.08 1.427 1.08s1.013-.4 1.427-1.08l1.093-1.813c.213-.36.413-1.094.413-1.507V6.6A2.942 2.942 0 007.52 3.667z"/><path d="M11.453 10.334h-7.88c-.546 0-1-.454-1-1 0-.547.454-1 1-1h7.88c.547 0 1 .453 1 1 0 .546-.453 1-1 1z"/></g></svg>34 17.6001 15.5068 17.6001L22.1734 17.6668C22.7201 17.6668 23.1734 18.1201 23.1601 18.6801C23.1468 19.2268 22.7068 19.6668 22.1601 19.6668Z" fill="#5A5A5A"/>
<path id="Vector_5" d="M19.4932 14.3335H15.4932C14.9465 14.3335 14.4932 13.8802 14.4932 13.3335C14.4932 12.7868 14.9465 12.3335 15.4932 12.3335H19.4932C20.0398 12.3335 20.4932 12.7868 20.4932 13.3335C20.4932 13.8802 20.0398 14.3335 19.4932 14.3335Z" fill="#5A5A5A"/>
<path id="Vector_6" d="M7.51991 30.2932C6.30658 30.2932 5.15991 29.5465 4.37324 28.2398L3.27991 26.4265C2.87991 25.7598 2.57324 24.6665 2.57324 23.8932V6.59984C2.57324 3.87984 4.78658 1.6665 7.50658 1.6665C10.2266 1.6665 12.4399 3.87984 12.4399 6.59984V23.8798C12.4399 24.6532 12.1332 25.7465 11.7332 26.4132L10.6399 28.2265C9.87991 29.5465 8.73324 30.2932 7.51991 30.2932ZM7.51991 3.6665C5.90658 3.6665 4.58658 4.9865 4.58658 6.59984V23.8798C4.58658 24.2932 4.78658 25.0265 4.99991 25.3865L6.09324 27.1998C6.50658 27.8932 7.02658 28.2798 7.51991 28.2798C8.01324 28.2798 8.53324 27.8798 8.94658 27.1998L10.0399 25.3865C10.2532 25.0265 10.4532 24.2932 10.4532 23.8798V6.59984C10.4532 4.9865 9.13324 3.6665 7.51991 3.6665Z" fill="#5A5A5A"/>
<path id="Vector_7" d="M11.4532 10.3335H3.57324C3.02658 10.3335 2.57324 9.88016 2.57324 9.3335C2.57324 8.78683 3.02658 8.3335 3.57324 8.3335H11.4532C11.9999 8.3335 12.4532 8.78683 12.4532 9.3335C12.4532 9.88016 11.9999 10.3335 11.4532 10.3335Z" fill="#5A5A5A"/>
</g>
</g>
</svg>
